X: 11434
T: Easy Club, The
R: reel
M: 4/4
K: Amajor
|:AEAc BFBd|ceef ecBA|fefg afec|dfec dcBc|
AEAc BFBd|ceef ecBA|fefg afed|cdBc A3z:|
|:~f2af dfaf|~e2ae ceae|~f2af defg|afed cdBc|
AEAc BFBd|ceef ecBA|~f3g afed|cdBc A3z:|

